X: 32410
T: Piper's Despair, The
R: reel
M: 4/4
K: Amixolydian
|:EFGA BAFA|(3Bcd AB dBAF|DFDF ADFA|A2 FA dBAF|
EFGA BAFA|(3Bcd AB dBAF|DEFG dfaf|gfed Be e2:|
|:ef (3gfe bege|efga b2 af|df f2 af f2|df f2 agfd|
ef (3gfe bege|efga b2 af|dcdf a3f|gfed Be e2:|

